X:1
T:Bogie's Bonnie Belle
M:4/4
L:1/4
K:G
 D| E E G A| B e d B3.99999962500005/11.9999985000002 B3.99999962500005/11.9999985000002 B3.99999962500005/11.9999985000002|\
 A B D D| E3| B| d d e d| c- B A E| G G c B| A3| B| d d e d| c- B A E/2E/2|\
 G G A B| c3| B| c B A G| A- d c A/2A/2| G3/2 E/2 D D| D3||
